; generated by Slic3r Prusa Edition 1.41.0 on 2019-06-08 at 09:00:36

; 

; external perimeters extrusion width = 0.45mm
; perimeters extrusion width = 0.45mm
; infill extrusion width = 0.45mm
; solid infill extrusion width = 0.45mm
; top infill extrusion width = 0.45mm
; first layer extrusion width = 0.42mm

M107
M190 S65 ; set bed temperature and wait for it to be reached
M104 S245 ; set temperature
G28 ; home all axes,
G92 E0 ;zero the extruded length,
G1 X5 Y119 E10 F1000.0 ; extrude 10mm to prime the nozzle,
G92 E0 ;zero the extruded length again,
G1 Z3.0 F9000 ;move the head 3mm up just to be safe,
G92 E0 ;zero the extruded length again
M900 K200; Filament gcode
M109 S245 ; set temperature and wait for it to be reached
G21 ; set units to millimeters
G90 ; use absolute coordinates
M83 ; use relative distances for extrusion
G1 E15 F1200

G1 E-4.00000 F1200.00000
G1 Z0.600 F12000.000
G1 X20.341 Y39.038
G1 Z0.250
G1 E4.00000 F1200.00000
M204 S1000
G1 X20.848 Y38.250 E0.03570
G1 X21.228 Y37.919 E0.01920
G1 X21.670 Y37.668 E0.01934
G1 X22.149 Y37.511 E0.01920
G1 X22.654 Y37.451 E0.01934
G1 X62.829 Y37.450 E1.52978
G1 X63.776 Y37.634 E0.03673
G1 X64.589 Y38.160 E0.03688
G1 X65.148 Y38.950 E0.03688
G1 X65.372 Y39.893 E0.03688
G1 X65.374 Y80.043 E1.52884
G1 X65.186 Y80.962 E0.03570
G1 X64.679 Y81.750 E0.03570
G1 X64.288 Y82.088 E0.01964
G1 X63.838 Y82.339 E0.01964
G1 X63.347 Y82.496 E0.01964
G1 X62.830 Y82.550 E0.01979
G1 X22.658 Y82.549 E1.52963
G1 X21.740 Y82.361 E0.03570
G1 X20.952 Y81.854 E0.03570
G1 X20.614 Y81.464 E0.01964
G1 X20.362 Y81.013 E0.01964
G1 X20.206 Y80.522 E0.01964
G1 X20.152 Y80.005 E0.01979
G1 X20.153 Y39.957 E1.52494
G1 X20.329 Y39.097 E0.03341
G1 X21.824 Y38.001 F12000.000
G1 F1200
G1 X22.667 Y37.817 E0.03286
G1 X62.828 Y37.817 E1.52924
G1 X63.644 Y37.976 E0.03164
G1 X64.341 Y38.429 E0.03164
G1 X64.818 Y39.109 E0.03164
G1 X65.007 Y39.922 E0.03177
G1 X65.008 Y80.033 E1.52734
G1 X64.846 Y80.826 E0.03082
G1 X64.406 Y81.505 E0.03082
G1 X63.686 Y82.006 E0.03341
G1 X62.830 Y82.183 E0.03327
G1 X22.669 Y82.183 E1.52924
G1 X21.876 Y82.021 E0.03082
G1 X21.196 Y81.581 E0.03082
G1 X20.695 Y80.861 E0.03341
G1 X20.519 Y80.005 E0.03327
G1 X20.519 Y39.967 E1.52456
G1 X20.681 Y39.174 E0.03082
G1 X21.120 Y38.495 E0.03082
G1 X21.775 Y38.036 E0.03044
; PURGING FINISHED
G1 E-4.00000
G1 Z0.850 F12000.000
G1 X28.988 Y45.776
G1 Z0.250
G1 E4.00000 F1200.00000
G1 X29.516 Y45.284 E0.02748
G1 X30.063 Y44.813 E0.02748
G1 X30.626 Y44.361 E0.02748
G1 X31.205 Y43.931 E0.02749
G1 X31.800 Y43.521 E0.02748
G1 X32.409 Y43.134 E0.02748
G1 X33.033 Y42.769 E0.02753
G1 X33.941 Y42.293 E0.03904
G1 X34.973 Y41.816 E0.04330
G1 X35.644 Y41.545 E0.02757
G1 X36.519 Y41.237 E0.03531
G1 X37.703 Y40.884 E0.04703
G1 X38.406 Y40.714 E0.02754
G1 X39.113 Y40.570 E0.02748
G1 X39.825 Y40.452 E0.02748
G1 X40.541 Y40.360 E0.02748
G1 X41.261 Y40.294 E0.02754
G1 X42.397 Y40.247 E0.04330
G1 X43.422 Y40.255 E0.03904
G1 X44.145 Y40.294 E0.02757
G1 X45.165 Y40.399 E0.03904
G1 X46.289 Y40.570 E0.04330
G1 X46.999 Y40.714 E0.02760
G1 X48.195 Y41.023 E0.04703
G1 X49.081 Y41.299 E0.03531
G1 X49.760 Y41.545 E0.02751
G1 X50.429 Y41.815 E0.02748
G1 X51.088 Y42.110 E0.02748
G1 X51.736 Y42.428 E0.02748
G1 X52.373 Y42.770 E0.02751
G1 X53.169 Y43.245 E0.03531
G1 X54.197 Y43.930 E0.04703
G1 X54.778 Y44.361 E0.02755
G1 X55.341 Y44.813 E0.02748
G1 X55.887 Y45.284 E0.02748
G1 X56.416 Y45.776 E0.02748
G1 X56.926 Y46.286 E0.02748
G1 X57.417 Y46.815 E0.02748
G1 X57.889 Y47.361 E0.02748
G1 X58.341 Y47.924 E0.02748
G1 X58.771 Y48.503 E0.02748
G1 X59.180 Y49.098 E0.02748
G1 X59.567 Y49.707 E0.02748
G1 X59.933 Y50.331 E0.02752
G1 X60.408 Y51.239 E0.03904
G1 X60.886 Y52.272 E0.04334
G1 X61.260 Y53.228 E0.03909
G1 X61.622 Y54.306 E0.04330
G1 X61.818 Y55.004 E0.02760
G1 X62.090 Y56.209 E0.04703
G1 X62.250 Y57.122 E0.03531
G1 X62.342 Y57.839 E0.02751
G1 X62.408 Y58.558 E0.02748
G1 X62.447 Y59.278 E0.02748
G1 X62.460 Y60.000 E0.02748
G1 X62.447 Y60.722 E0.02748
G1 X62.408 Y61.442 E0.02748
G1 X62.342 Y62.161 E0.02748
G1 X62.250 Y62.877 E0.02748
G1 X62.131 Y63.590 E0.02754
G1 X61.866 Y64.797 E0.04703
G1 X61.623 Y65.692 E0.03531
G1 X61.402 Y66.381 E0.02756
G1 X61.043 Y67.341 E0.03903
G1 X60.593 Y68.385 E0.04330
G1 X60.273 Y69.035 E0.02757
G1 X59.828 Y69.848 E0.03531
G1 X59.181 Y70.901 E0.04703
G1 X58.771 Y71.497 E0.02754
G1 X58.341 Y72.076 E0.02748
G1 X57.889 Y72.639 E0.02748
G1 X57.417 Y73.185 E0.02748
G1 X56.926 Y73.714 E0.02748
G1 X56.414 Y74.225 E0.02754
G1 X55.497 Y75.052 E0.04703
G1 X54.778 Y75.638 E0.03531
G1 X54.197 Y76.070 E0.02758
G1 X53.169 Y76.755 E0.04703
G1 X52.372 Y77.231 E0.03536
G1 X51.463 Y77.707 E0.03907
G1 X50.431 Y78.184 E0.04330
G1 X49.760 Y78.455 E0.02754
G1 X49.081 Y78.700 E0.02748
G1 X48.394 Y78.921 E0.02748
G1 X47.698 Y79.116 E0.02753
G1 X46.699 Y79.347 E0.03904
G1 X45.580 Y79.548 E0.04330
G1 X44.862 Y79.640 E0.02758
G1 X43.840 Y79.723 E0.03904
G1 X42.702 Y79.759 E0.04336
G1 X41.564 Y79.723 E0.04336
G1 X40.542 Y79.640 E0.03904
G1 X39.823 Y79.548 E0.02758
G1 X38.704 Y79.347 E0.04330
G1 X37.705 Y79.116 E0.03904
G1 X37.009 Y78.921 E0.02753
G1 X36.322 Y78.700 E0.02748
G1 X35.643 Y78.455 E0.02748
G1 X34.973 Y78.184 E0.02754
G1 X33.941 Y77.707 E0.04330
G1 X33.032 Y77.231 E0.03907
G1 X32.234 Y76.755 E0.03536
G1 X31.206 Y76.070 E0.04703
G1 X30.626 Y75.639 E0.02755
G1 X30.063 Y75.187 E0.02748
G1 X29.516 Y74.716 E0.02748
G1 X28.988 Y74.224 E0.02748
G1 X28.477 Y73.714 E0.02748
G1 X27.986 Y73.185 E0.02748
G1 X27.514 Y72.639 E0.02748
G1 X27.063 Y72.076 E0.02748
G1 X26.632 Y71.497 E0.02748
G1 X26.222 Y70.901 E0.02754
G1 X25.576 Y69.848 E0.04703
G1 X25.130 Y69.035 E0.03531
G1 X24.811 Y68.385 E0.02757
G1 X24.361 Y67.341 E0.04330
G1 X24.002 Y66.381 E0.03904
G1 X23.781 Y65.692 E0.02756
G1 X23.537 Y64.797 E0.03531
G1 X23.272 Y63.590 E0.04703
G1 X23.154 Y62.877 E0.02754
G1 X23.062 Y62.161 E0.02748
G1 X22.996 Y61.442 E0.02748
G1 X22.956 Y60.722 E0.02748
G1 X22.943 Y60.000 E0.02748
G1 X22.956 Y59.278 E0.02748
G1 X22.996 Y58.558 E0.02748
G1 X23.062 Y57.839 E0.02748
G1 X23.154 Y57.123 E0.02748
G1 X23.272 Y56.410 E0.02754
G1 X23.537 Y55.203 E0.04703
G1 X23.781 Y54.308 E0.03531
G1 X24.002 Y53.619 E0.02756
G1 X24.361 Y52.659 E0.03904
G1 X24.811 Y51.615 E0.04330
G1 X25.130 Y50.965 E0.02757
G1 X25.576 Y50.152 E0.03531
G1 X26.222 Y49.099 E0.04703
G1 X26.632 Y48.503 E0.02754
G1 X27.063 Y47.924 E0.02748
G1 X27.514 Y47.361 E0.02748
G1 X27.986 Y46.815 E0.02748
G1 X28.477 Y46.286 E0.02748
G1 X28.945 Y45.818 E0.02520
G1 X28.891 Y45.388 F12000.000
G1 X28.686 Y45.559
G1 F1200
G1 X28.569 Y45.676 E0.00630
G1 X28.800 Y45.388 E0.01405
G1 X29.017 Y44.984 E0.01748
G1 X29.159 Y44.542 E0.01768
G1 X29.219 Y44.000 E0.02076
G1 X29.159 Y43.458 E0.02076
G1 X29.016 Y43.011 E0.01788
G1 X28.752 Y42.540 E0.02056
G1 X28.445 Y42.185 E0.01786
G1 X28.024 Y41.859 E0.02028
G1 X27.601 Y41.650 E0.01795
G1 X27.158 Y41.526 E0.01752
G1 X26.689 Y41.484 E0.01795
G1 X26.159 Y41.543 E0.02028
G1 X25.718 Y41.684 E0.01766
G1 X25.309 Y41.904 E0.01768
G1 X24.894 Y42.249 E0.02056
G1 X24.603 Y42.612 E0.01768
G1 X24.386 Y43.016 E0.01750
G1 X24.243 Y43.466 E0.01795
G1 X24.185 Y43.995 E0.02028
G1 X24.227 Y44.457 E0.01766
G1 X24.352 Y44.899 E0.01750
G1 X24.561 Y45.322 E0.01795
G1 X24.887 Y45.743 E0.02028
G1 X25.242 Y46.050 E0.01786
G1 X25.717 Y46.316 E0.02075
G1 X26.232 Y46.472 E0.02048
G1 X26.702 Y46.516 E0.01798
G1 X27.172 Y46.472 E0.01798
G1 X27.681 Y46.318 E0.02028
G1 X28.095 Y46.096 E0.01787
G1 X28.422 Y45.824 E0.01621
G1 X27.713 Y46.570 E0.03919
G1 X27.233 Y47.127 E0.02799
G1 X26.773 Y47.700 E0.02799
G1 X26.334 Y48.290 E0.02799
G1 X25.915 Y48.899 E0.02816
G1 X25.259 Y49.967 E0.04774
G1 X24.805 Y50.796 E0.03597
G1 X24.478 Y51.461 E0.02823
G1 X24.021 Y52.522 E0.04399
G1 X23.656 Y53.499 E0.03971
G1 X23.429 Y54.204 E0.02820
G1 X23.278 Y54.760 E0.02192
G1 X23.278 Y40.576 E0.54007
G1 X37.453 Y40.576 E0.53975
G1 X36.406 Y40.888 E0.04161
G1 X35.515 Y41.202 E0.03597
G1 X34.827 Y41.480 E0.02823
G1 X33.779 Y41.965 E0.04399
G1 X32.855 Y42.448 E0.03971
G1 X32.218 Y42.821 E0.02811
G1 X31.597 Y43.216 E0.02799
G1 X30.992 Y43.633 E0.02799
G1 X30.402 Y44.071 E0.02799
G1 X29.828 Y44.531 E0.02799
G1 X29.272 Y45.011 E0.02799
G1 X28.729 Y45.517 E0.02824
G1 X28.247 Y45.493 F12000.000
G1 F1200
G1 X27.889 Y45.791 E0.01775
G1 X27.540 Y45.978 E0.01506
G1 X27.101 Y46.111 E0.01748
G1 X26.702 Y46.148 E0.01527
G1 X26.302 Y46.111 E0.01527
G1 X25.861 Y45.977 E0.01755
G1 X25.453 Y45.748 E0.01782
G1 X25.154 Y45.490 E0.01506
G1 X24.873 Y45.127 E0.01748
G1 X24.695 Y44.768 E0.01526
G1 X24.589 Y44.390 E0.01493
G1 X24.553 Y43.998 E0.01499
G1 X24.603 Y43.542 E0.01748
G1 X24.725 Y43.160 E0.01526
G1 X24.910 Y42.815 E0.01493
G1 X25.156 Y42.507 E0.01499
G1 X25.515 Y42.209 E0.01775
G1 X25.862 Y42.023 E0.01499
G1 X26.236 Y41.903 E0.01498
G1 X26.693 Y41.852 E0.01748
G1 X27.092 Y41.887 E0.01526
G1 X27.469 Y41.994 E0.01494
G1 X27.829 Y42.171 E0.01526
G1 X28.192 Y42.452 E0.01748
G1 X28.450 Y42.751 E0.01506
G1 X28.678 Y43.158 E0.01775
G1 X28.799 Y43.535 E0.01507
G1 X28.850 Y44.000 E0.01782
G1 X28.799 Y44.465 E0.01782
G1 X28.679 Y44.840 E0.01499
G1 X28.493 Y45.185 E0.01492
G1 X28.285 Y45.446 E0.01271
G1 X28.353 Y45.878 F12000.000
G1 E-4.00000 F1200.00000
G1 Z0.850 F12000.000
G1 X23.278 Y65.240
G1 Z0.250
G1 E4.00000 F1200.00000
G1 X23.429 Y65.796 E0.02192
G1 X23.656 Y66.501 E0.02820
G1 X24.021 Y67.478 E0.03971
G1 X24.478 Y68.539 E0.04399
G1 X24.805 Y69.204 E0.02823
G1 X25.259 Y70.033 E0.03597
G1 X25.915 Y71.101 E0.04774
G1 X26.334 Y71.710 E0.02816
G1 X26.773 Y72.300 E0.02799
G1 X27.233 Y72.873 E0.02799
G1 X27.713 Y73.430 E0.02799
G1 X28.381 Y74.135 E0.03699
G1 X28.024 Y73.859 E0.01720
G1 X27.601 Y73.650 E0.01795
G1 X27.158 Y73.526 E0.01752
G1 X26.689 Y73.484 E0.01795
G1 X26.159 Y73.543 E0.02028
G1 X25.718 Y73.684 E0.01766
G1 X25.309 Y73.904 E0.01768
G1 X24.890 Y74.253 E0.02075
G1 X24.561 Y74.678 E0.02048
G1 X24.352 Y75.101 E0.01795
G1 X24.227 Y75.543 E0.01750
G1 X24.186 Y76.000 E0.01747
G1 X24.227 Y76.457 E0.01747
G1 X24.352 Y76.899 E0.01750
G1 X24.561 Y77.322 E0.01795
G1 X24.887 Y77.743 E0.02028
G1 X25.242 Y78.050 E0.01786
G1 X25.717 Y78.316 E0.02075
G1 X26.232 Y78.472 E0.02048
G1 X26.702 Y78.516 E0.01798
G1 X27.172 Y78.472 E0.01798
G1 X27.681 Y78.318 E0.02028
G1 X28.095 Y78.096 E0.01787
G1 X28.510 Y77.751 E0.02056
G1 X28.800 Y77.388 E0.01768
G1 X29.017 Y76.984 E0.01748
G1 X29.159 Y76.542 E0.01768
G1 X29.219 Y76.000 E0.02076
G1 X29.159 Y75.458 E0.02076
G1 X29.016 Y75.011 E0.01788
G1 X28.752 Y74.540 E0.02056
G1 X28.536 Y74.291 E0.01254
G1 X29.272 Y74.989 E0.03861
G1 X29.828 Y75.469 E0.02799
G1 X30.402 Y75.929 E0.02799
G1 X30.995 Y76.370 E0.02816
G1 X32.039 Y77.065 E0.04774
G1 X32.853 Y77.550 E0.03609
G1 X33.779 Y78.035 E0.03980
G1 X34.827 Y78.520 E0.04399
G1 X35.512 Y78.797 E0.02814
G1 X36.204 Y79.047 E0.02799
G1 X37.445 Y79.424 E0.04938
G1 X23.278 Y79.424 E0.53943
G1 X23.278 Y65.300 E0.53779
G1 E-4.00000
G1 Z0.850 F12000.000
G1 X26.236 Y73.903
G1 Z0.250
G1 E4.00000 F1200.00000
G1 X26.693 Y73.852 E0.01748
G1 X27.092 Y73.887 E0.01526
G1 X27.469 Y73.994 E0.01494
G1 X27.829 Y74.171 E0.01526
G1 X28.192 Y74.452 E0.01748
G1 X28.450 Y74.751 E0.01506
G1 X28.678 Y75.158 E0.01775
G1 X28.799 Y75.535 E0.01507
G1 X28.850 Y76.000 E0.01782
G1 X28.799 Y76.465 E0.01782
G1 X28.679 Y76.840 E0.01499
G1 X28.493 Y77.185 E0.01492
G1 X28.247 Y77.493 E0.01499
G1 X27.889 Y77.791 E0.01775
G1 X27.540 Y77.978 E0.01506
G1 X27.101 Y78.111 E0.01748
G1 X26.702 Y78.148 E0.01527
G1 X26.302 Y78.111 E0.01527
G1 X25.861 Y77.977 E0.01755
G1 X25.453 Y77.748 E0.01782
G1 X25.154 Y77.490 E0.01506
G1 X24.873 Y77.127 E0.01748
G1 X24.695 Y76.768 E0.01526
G1 X24.589 Y76.390 E0.01493
G1 X24.554 Y76.000 E0.01492
G1 X24.589 Y75.610 E0.01492
G1 X24.695 Y75.232 E0.01493
G1 X24.873 Y74.873 E0.01526
G1 X25.155 Y74.509 E0.01755
G1 X25.515 Y74.209 E0.01782
G1 X25.862 Y74.023 E0.01499
G1 X26.179 Y73.921 E0.01270
G1 X26.360 Y73.522 F12000.000
G1 E-4.00000 F1200.00000
G1 Z0.850 F12000.000
G1 X56.553 Y76.000
G1 Z0.250
G1 E4.00000 F1200.00000
G1 X56.604 Y75.535 E0.01782
G1 X56.725 Y75.160 E0.01499
G1 X56.910 Y74.815 E0.01492
G1 X57.156 Y74.507 E0.01499
G1 X57.515 Y74.209 E0.01775
G1 X57.862 Y74.023 E0.01500
G1 X58.236 Y73.903 E0.01499
G1 X58.693 Y73.852 E0.01748
G1 X59.092 Y73.887 E0.01526
G1 X59.469 Y73.994 E0.01494
G1 X59.829 Y74.171 E0.01526
G1 X60.192 Y74.452 E0.01748
G1 X60.450 Y74.751 E0.01506
G1 X60.678 Y75.158 E0.01776
G1 X60.801 Y75.542 E0.01533
G1 X60.850 Y75.998 E0.01748
G1 X60.814 Y76.390 E0.01499
G1 X60.708 Y76.768 E0.01493
G1 X60.531 Y77.127 E0.01526
G1 X60.248 Y77.491 E0.01755
G1 X59.889 Y77.791 E0.01782
G1 X59.540 Y77.978 E0.01506
G1 X59.101 Y78.111 E0.01748
G1 X58.702 Y78.148 E0.01527
G1 X58.303 Y78.111 E0.01527
G1 X57.863 Y77.978 E0.01748
G1 X57.515 Y77.791 E0.01506
G1 X57.156 Y77.493 E0.01775
G1 X56.910 Y77.185 E0.01499
G1 X56.725 Y76.840 E0.01492
G1 X56.604 Y76.465 E0.01499
G1 X56.560 Y76.060 E0.01554
G1 X56.208 Y75.798 F12000.000
G1 X56.834 Y74.324
G1 F1200
G1 X56.603 Y74.612 E0.01405
G1 X56.386 Y75.016 E0.01748
G1 X56.244 Y75.458 E0.01768
G1 X56.185 Y76.000 E0.02076
G1 X56.244 Y76.542 E0.02076
G1 X56.386 Y76.984 E0.01768
G1 X56.603 Y77.388 E0.01748
G1 X56.894 Y77.751 E0.01768
G1 X57.309 Y78.096 E0.02056
G1 X57.722 Y78.318 E0.01786
G1 X58.232 Y78.472 E0.02028
G1 X58.702 Y78.516 E0.01798
G1 X59.172 Y78.472 E0.01798
G1 X59.681 Y78.318 E0.02027
G1 X60.095 Y78.096 E0.01786
G1 X60.514 Y77.747 E0.02075
G1 X60.843 Y77.322 E0.02048
G1 X61.052 Y76.899 E0.01795
G1 X61.176 Y76.457 E0.01750
G1 X61.218 Y75.995 E0.01766
G1 X61.161 Y75.466 E0.02028
G1 X61.016 Y75.011 E0.01815
G1 X60.752 Y74.540 E0.02059
G1 X60.445 Y74.185 E0.01786
G1 X60.024 Y73.859 E0.02028
G1 X59.601 Y73.650 E0.01795
G1 X59.158 Y73.526 E0.01752
G1 X58.689 Y73.484 E0.01796
G1 X58.159 Y73.543 E0.02028
G1 X57.718 Y73.684 E0.01766
G1 X57.309 Y73.904 E0.01768
G1 X56.982 Y74.176 E0.01621
G1 X57.690 Y73.430 E0.03920
G1 X58.171 Y72.873 E0.02799
G1 X58.631 Y72.300 E0.02799
G1 X59.069 Y71.710 E0.02799
G1 X59.488 Y71.101 E0.02816
G1 X60.145 Y70.033 E0.04774
G1 X60.599 Y69.204 E0.03597
G1 X60.926 Y68.539 E0.02823
G1 X61.383 Y67.478 E0.04399
G1 X61.748 Y66.501 E0.03971
G1 X61.974 Y65.796 E0.02820
G1 X62.248 Y64.765 E0.04060
G1 X62.248 Y79.424 E0.55815
G1 X47.959 Y79.424 E0.54411
G1 X49.200 Y79.047 E0.04938
G1 X49.891 Y78.797 E0.02799
G1 X50.576 Y78.520 E0.02814
G1 X51.625 Y78.035 E0.04399
G1 X52.551 Y77.550 E0.03980
G1 X53.365 Y77.065 E0.03609
G1 X54.408 Y76.370 E0.04774
G1 X55.003 Y75.927 E0.02825
G1 X55.736 Y75.331 E0.03597
G1 X56.792 Y74.366 E0.05446
G1 E-4.00000
G1 Z0.850 F12000.000
G1 X62.248 Y55.246
G1 Z0.250
G1 E4.00000 F1200.00000
G1 X61.972 Y54.198 E0.04124
G1 X61.605 Y53.103 E0.04399
G1 X61.224 Y52.128 E0.03986
G1 X60.737 Y51.077 E0.04411
G1 X60.253 Y50.153 E0.03971
G1 X59.880 Y49.516 E0.02811
G1 X59.486 Y48.896 E0.02799
G1 X59.069 Y48.290 E0.02799
G1 X58.631 Y47.700 E0.02799
G1 X58.171 Y47.127 E0.02799
G1 X57.690 Y46.570 E0.02799
G1 X56.982 Y45.824 E0.03919
G1 X57.309 Y46.096 E0.01621
G1 X57.722 Y46.318 E0.01786
G1 X58.232 Y46.472 E0.02028
G1 X58.702 Y46.516 E0.01798
G1 X59.172 Y46.472 E0.01798
G1 X59.681 Y46.318 E0.02027
G1 X60.095 Y46.096 E0.01786
G1 X60.514 Y45.747 E0.02075
G1 X60.843 Y45.322 E0.02048
G1 X61.052 Y44.899 E0.01795
G1 X61.176 Y44.457 E0.01750
G1 X61.218 Y43.995 E0.01766
G1 X61.161 Y43.466 E0.02028
G1 X61.016 Y43.011 E0.01815
G1 X60.752 Y42.540 E0.02059
G1 X60.445 Y42.185 E0.01786
G1 X60.024 Y41.859 E0.02028
G1 X59.601 Y41.650 E0.01795
G1 X59.158 Y41.526 E0.01752
G1 X58.689 Y41.484 E0.01796
G1 X58.159 Y41.543 E0.02028
G1 X57.718 Y41.684 E0.01766
G1 X57.309 Y41.904 E0.01768
G1 X56.894 Y42.249 E0.02056
G1 X56.603 Y42.612 E0.01768
G1 X56.386 Y43.016 E0.01748
G1 X56.244 Y43.458 E0.01768
G1 X56.185 Y44.000 E0.02076
G1 X56.244 Y44.542 E0.02076
G1 X56.386 Y44.984 E0.01768
G1 X56.603 Y45.388 E0.01748
G1 X56.834 Y45.676 E0.01405
G1 X56.132 Y45.011 E0.03683
G1 X55.575 Y44.531 E0.02799
G1 X55.002 Y44.071 E0.02799
G1 X54.408 Y43.630 E0.02816
G1 X53.365 Y42.935 E0.04774
G1 X52.553 Y42.451 E0.03597
G1 X51.904 Y42.102 E0.02808
